bell-cog.svg

<svg fill="currentColor" viewBox="0 0 24 24"><path d="M19 12c-3.87 0-7 3.13-7 7 0 .34.03.67.08 1H3v-1l2-2v-6c0-3.1 2.03-5.83 5-6.71V4c0-1.1.9-2 2-2s2 .9 2 2v.29c2.97.88 5 3.61 5 6.71zm-9 9a2 2 0 0 0 2 2c.39 0 .75-.12 1.06-.31-.32-.52-.56-1.09-.76-1.69zm13.77-.68c.1.07.12.21.06.32l-1 1.73c-.06.13-.19.13-.3.13l-1.25-.53c-.28.2-.53.37-.84.5l-.19 1.32c-.02.12-.12.21-.25.21h-2c-.12 0-.23-.09-.25-.21l-.18-1.32c-.32-.13-.57-.3-.85-.5l-1.22.53c-.13 0-.27 0-.33-.13l-1-1.73a.26.26 0 0 1 .06-.32l1.06-.82c-.02-.17-.04-.33-.04-.5s.02-.33.04-.5l-1.06-.82c-.09-.07-.12-.18-.06-.32l1-1.72c.06-.11.2-.14.33-.11l1.22.47c.28-.17.53-.34.85-.46l.18-1.33c.02-.12.13-.21.25-.21h2c.13 0 .23.09.25.21l.19 1.33c.31.12.56.29.84.46l1.25-.47c.11-.03.24 0 .3.11l1 1.72c.06.14.04.25-.06.32l-1.05.82a4.3 4.3 0 0 1 0 1zM20.75 19c0-.97-.78-1.75-1.75-1.75s-1.75.78-1.75 1.75.79 1.75 1.75 1.75 1.75-.78 1.75-1.75"/></svg>

<svg  viewBox="0 0 24 24" fill="currentColor"><path  d="M19 12C15.13 12 12 15.13 12 19C12 19.34 12.03 19.67 12.08 20H3V19L5 17V11C5 7.9 7.03 5.17 10 4.29V4C10 2.9 10.9 2 12 2S14 2.9 14 4V4.29C16.97 5.17 19 7.9 19 11V12M10 21C10 22.11 10.9 23 12 23C12.39 23 12.75 22.88 13.06 22.69C12.74 22.17 12.5 21.6 12.3 21H10M23.77 20.32C23.87 20.39 23.89 20.53 23.83 20.64L22.83 22.37C22.77 22.5 22.64 22.5 22.53 22.5L21.28 21.97C21 22.17 20.75 22.34 20.44 22.47L20.25 23.79C20.23 23.91 20.13 24 20 24H18C17.88 24 17.77 23.91 17.75 23.79L17.57 22.47C17.25 22.34 17 22.17 16.72 21.97L15.5 22.5C15.37 22.5 15.23 22.5 15.17 22.37L14.17 20.64C14.11 20.53 14.14 20.39 14.23 20.32L15.29 19.5C15.27 19.33 15.25 19.17 15.25 19S15.27 18.67 15.29 18.5L14.23 17.68C14.14 17.61 14.11 17.5 14.17 17.36L15.17 15.64C15.23 15.53 15.37 15.5 15.5 15.53L16.72 16C17 15.83 17.25 15.66 17.57 15.54L17.75 14.21C17.77 14.09 17.88 14 18 14H20C20.13 14 20.23 14.09 20.25 14.21L20.44 15.54C20.75 15.66 21 15.83 21.28 16L22.53 15.53C22.64 15.5 22.77 15.53 22.83 15.64L23.83 17.36C23.89 17.5 23.87 17.61 23.77 17.68L22.72 18.5C22.74 18.67 22.75 18.84 22.75 19S22.74 19.33 22.72 19.5L23.77 20.32M20.75 19C20.75 18.03 19.97 17.25 19 17.25S17.25 18.03 17.25 19 18.04 20.75 19 20.75 20.75 19.97 20.75 19Z"/></svg>
